packages/core/src/svgs/tokens/branded/FLOW.svg

<svg width="24" height="24" viewBox="0 0 24 24" fill="none" xmlns="http://www.w3.org/2000/svg">
<path fill-rule="evenodd" clip-rule="evenodd" d="M21.5473 6.37499H17.0474C16.0786 6.37499 15.2974 7.35622 15.2974 8.29998V8.87497H10.2974V8.29998C10.2974 4.82499 13.1974 2 16.7786 2H21.5473V6.37499ZM10.2974 15.4375C10.2974 16.4187 9.71613 17.225 8.73488 17.225C7.48489 17.225 6.94739 16.4187 6.94739 15.4375C6.94739 14.4562 7.75365 13.8749 8.73488 13.8749H10.2974V15.4375ZM15.2974 13.8749V15.1499C15.2974 18.7749 12.3599 22 8.73488 22C7.04397 21.9261 5.44679 21.2024 4.27636 19.9798C3.10595 18.7573 2.45264 17.1301 2.45264 15.4375C2.45264 13.745 3.10595 12.1176 4.27636 10.8951C5.44679 9.67246 7.04397 8.94879 8.73488 8.87497H10.2974V13.8749H15.2974ZM15.2974 13.8749V8.87497H20.2974V13.8749H15.2974Z" fill="#00EF8B"/>
</svg>

<svg xmlns="http://www.w3.org/2000/svg" width="24" height="24" fill="none" viewBox="0 0 24 24">
    <path fill="#00EF8B" fill-rule="evenodd" d="M21.547 6.375h-4.5c-.968 0-1.75.981-1.75 1.925v.575h-5V8.3c0-3.475 2.9-6.3 6.482-6.3h4.768zm-11.25 9.063c0 .98-.58 1.787-1.562 1.787-1.25 0-1.788-.806-1.788-1.788 0-.98.807-1.562 1.788-1.562h1.562zm5-1.563v1.275c0 3.625-2.937 6.85-6.562 6.85a6.57 6.57 0 0 1 0-13.125h1.562v5zm0 0v-5h5v5z" clip-rule="evenodd"/>
</svg>
